!!!!SEGMENT: pl-wtm--670-sp-3678--001-022_weber-carl-maria-von--piosenki-dla-mlodocianego-wieku-piotr-maszynski-22-strzelec.krn
!!!cenid: 18xx:4774
!!!COM: Weber, Carl Maria von
!!!COM-rismID: pe117485
!!!CDT: 1786/11/19-1826/06/05
!!!CNT: German
!!!GTL: Piosenki dla młodocianego wieku (Piotr Maszyński)
!!!OTL: 22. Strzelec
!!!OMV: 022
!!!PDT: 1871
!!!AGN: Secular; Song; Children
!!!YEC: Copyright 2022 Narodowy Instytut Fryderyka Chopina (https://polishscores.org)
!!!YEM: License CC-BY-4.0 (https://creativecommons.org/licenses/by/4.0)
!!!SMS-siglum: PL-Wtm
!!!SMS-shelfmark: 670 śp 3678
!!!SMS-variant:
!!!SMS-altvar:
!!!SMS-shelfwork: 001-022 G
!!!NIFC-rismSourceID: 1001185478
!!!NIFC-rismChildID: 1001185478
!!!NIFC-islandoraID: pl-wtm:57754
!!!URL-pdf-islandora: https://repozytorium.nifc.pl/islandora/object/pl-wtm%3A57754/datastream/PDF/view
!!!URL-scan: https://polish.musicsources.pl/pl/lokalizacje/galeria/druki-muzyczne/19483/15 @EN{Scan on Polish Music Sources Website} @PL{Skany w portalu Dziedzictwo Muzyki Polskiej w otwartym dostępie}
!!!IIIF:
!!!ONB-nifc:
!!!AIN: 1 canto 1 piano
!!!key: G
**kern	**fing	**kern	**fing	**dynam	**kern	**text	**text	**text	**dynam
*part2	*	*part2	*	*part2	*part1	*part1	*part1	*part1	*part1
*staff3	*	*staff2	*	*staff2/3	*staff1	*staff1	*staff1	*staff1	*
*IGacmp	*	*IGacmp	*	*	*	*	*	*	*
*ICklav	*	*ICklav	*	*	*ICvox	*	*	*	*
*Ipiano	*	*Ipiano	*	*	*Icanto	*	*	*	*
*I"Fortepian.	*	*I"Fortepian.	*	*	*I"Śpiew.	*	*	*	*
*I'	*	*I'	*	*	*I'	*	*	*	*
*clefF4	*	*clefG2	*	*	*clefG2	*	*	*	*
*k[f#]	*	*k[f#]	*	*	*k[f#]	*	*	*	*
*G:	*	*G:	*	*	*G:	*	*	*	*
*M6/8	*	*M6/8	*	*	*M6/8	*	*	*	*
=1	=1	=1	=1	=1	=1	=1	=1	=1	=1
*	*	*	*	*	*^	*	*	*	*
!!LO:TX:a:B:t=Allegro non troppo.
!	!	!	!	!	!	!	!	!	!	!LO:DY:a:rj
4B 4G\	.	4g/	.	mf	4g/	4g\	Z łu-	W gó-	Tam	mf
8B 8G\	.	8g/	.	.	8g/	8g\	-kiem,	-rę,	on	.
4d 4G\	.	4b 4g/	.	.	4b/	4g\	strza-	na	mię-	.
8d 8G\	.	8b 8g/	.	.	8b/	8g\	-łą	wy-	-dzy	.
=2	=2	=2	=2	=2	=2	=2	=2	=2	=2	=2
4.B 4.G\	.	4.dd 4.b\	.	.	4.dd/	4.b\	w dło-	-ży-	ska-	.
4.d 4.G\	.	4.b 4.g/	.	.	4.b/	4.g\	-ni	-ny	-ły,	.
=3	=3	=3	=3	=3	=3	=3	=3	=3	=3	=3
4D\	.	4cc 4a\	.	.	4cc/	4a\	do-	o-	lub	.
*	*below	*	*	*	*	*	*	*	*	*
8F#\	2	8cc 8a\	.	.	8cc/	8a\	-łem	-rzeł	u	.
4G\	1	(8bL 8g/	3 5	.	(8b/L	(8g\L	leś-	le-	wzgó-	.
.	.	8a 8d/)	1 4	.	8a/J)	8d\J)	.	.	.	.
8G\	.	8gJ 8B/	1 3	.	8g/	8B\	-nych	-ci	-rza	.
=4	=4	=4	=4	=4	=4	=4	=4	=4	=4	=4
4F# 4D\	.	4.a 4.d/	.	.	4.a/	4.d\	wzgórz	rad,	stóp,	.
8D\	.	.	.	.	.	.	.	.	.	.
4D\	.	4r	.	.	4r	4ryy	.	.	.	.
8D\	.	8r	.	.	8r	8ryy	.	.	.	.
!!LO:LB:g=original
=5	=5	=5	=5	=5	=5	=5	=5	=5	=5	=5
4A 4D\	.	4a 4f#/	2 4	.	4a/	4d\	dziel-	ja-	na	.
8G 8D\	.	8b 8g/	1 3	.	8b/	8g\	-ny	-ry	od-	.
!	!	!	!	!	!	!	!	!	!	!LO:HP:a
4F# 4D\	.	4cc 4a\	.	<	4cc/	4a\	strze-	i	-leg-	<
8G\	.	8b 8g/	.	.	8b/	8g\	-lec	do-	-łość	.
=6	=6	=6	=6	=6	=6	=6	=6	=6	=6	=6
4.c 4.C\	.	4.ee 4.cc 4.g\	.	.	4.ee/	4.cc\	go-	-li-	strza-	.
4.G\	.	4.dd 4.b 4.g\	.	.	4.dd/	4.b\	-ni	-ny	-ły	.
=7	=7	=7	=7	=7	=7	=7	=7	=7	=7	=7
!	!	!	!	!	!	!	!	!	!	!LO:DY:a:rj
4d 4D\	.	4gg 4b\	.	f	4gg/	4b\	od	hej!	zaw-	f
8d 8D\	.	8dd 8b\	.	.	8dd/	8b\	po-	to	-sze	.
4d 4D\	.	(8ccL 8a/	3 5	.	(8cc/L	(8a\L	-ran-	strzel-	znaj-	.
.	.	8b 8g/)	1 4	.	8b/J)	8g\J)	.	.	.	.
8c 8D\	.	8aJ 8f#/	2 3	.	8a/	8d\	-ku	-ca	-dzie	.
=8	=8	=8	=8	=8	=8	=8	=8	=8	=8	=8
4B 4G\	.	4.g/	.	.	4.g/	4.g\	już.	świat.	łup.	.
8GG/	.	.	.	.	.	.	.	.	.	.
4GG/	.	4r	.	.	4r	4ryy	.	.	.	.
!	!	!	!	!	!LO:N:vis=8	!LO:N:vis=8	!	!	!	!LO:DY:a
8r	.	16bLL 16g/	.	mf	16b/	16g\	.	Tra	.	mf
!	!	!	!	!	!LO:N:vis=8	!LO:N:vis=8	!	!	!	!
.	.	16ccJJ 16a/	.	.	16cc/	16a\	.	la	.	.
!!LO:LB:g=original
=9	=9	=9	=9	=9	=9	=9	=9	=9	=9	=9
4GG/	.	4dd 4b\	.	.	4dd/	4b\	la	.	.	.
8r	.	16bLL 16g/	.	.	16b/	16g\	la	.	.	.
.	.	16ccJJ 16a/	.	.	16cc/	16a\	la	.	.	.
!	!	!	!	!	!	!	!	!	!	!LO:HP:a
4G\	.	4dd 4b\	.	<	4dd/	4b\	la	.	.	<
8r	.	16bLL 16g/	.	.	16b/	16g\	la	.	.	.
.	.	16ccJJ 16a/	.	[[	16cc/	16a\	la	.	.	.
.	.	.	.	.	.	.	.	.	.	[
=10	=10	=10	=10	=10	=10	=10	=10	=10	=10	=10
!	!	!	!	!	!	!	!	!	!	!LO:HP:a
8GG/L	.	(4.dd 4.b\	.	>	(4.dd/	(4.b\	la_	.	.	>
8BB/	.	.	.	.	.	.	.	.	.	.
8D/J	.	.	.	.	.	.	.	.	.	.
!LO:SIC:v:s=8G\	!	!	!	!	!	!	!	!	!	!
8F#\	.	8b 8g/)	.	]	8b/)	8g\)	.	.	.	]
8r	.	8r	.	.	8r	8ryy	.	.	.	.
8r	.	8g/	.	.	8g/	8g\	la	.	.	.
=11	=11	=11	=11	=11	=11	=11	=11	=11	=11	=11
4DD/	.	4a 4d/	2 5	.	4a/	4d\	la	.	.	.
8r	.	8a 8d/	.	.	8a/	8d\	la	.	.	.
4D\	.	8aL 8d/	.	.	8a/	8d\	la	.	.	.
.	.	8g 8B/	.	.	8g/	8B\	la	.	.	.
8r	.	8aJ 8d/	.	.	8a/	8d\	la	.	.	.
=12	=12	=12	=12	=12	=12	=12	=12	=12	=12	=12
8G\L	.	4g 4B/	.	.	4g/	4B\	la	.	.	.
8D\	.	.	.	.	.	.	.	.	.	.
8BB\J	.	8r	.	.	8r	8ryy	.	.	.	.
4GG/	.	4r	.	.	4r	4ryy	.	.	.	.
!	!	!	!	!	!	!	!	!	!	!LO:DY:a
8r	.	16bLL 16g/	.	pp	16b/	16g\	la	.	.	pp
.	.	16ccJJ 16a/	.	.	16cc/	16a\	la	.	.	.
!!LO:LB:g=original
=13	=13	=13	=13	=13	=13	=13	=13	=13	=13	=13
4GG/	.	4dd 4b\	.	.	4dd/	4b\	la	.	.	.
8r	.	16bLL 16g/	.	.	16b/	16g\	la	.	.	.
.	.	16ccJJ 16a/	.	.	16cc/	16a\	la	.	.	.
!	!	!	!	!	!	!	!	!	!	!LO:HP:a
4G\	.	4dd 4b\	.	<	4dd/	4b\	la	.	.	<
8r	.	16bLL 16g/	.	.	16b/	16g\	la	.	.	.
.	.	16ccJJ 16a/	.	.	16cc/	16a\	la	.	.	.
.	.	.	.	[	.	.	.	.	.	[
=14	=14	=14	=14	=14	=14	=14	=14	=14	=14	=14
!	!	!	!	!	!	!	!	!	!	!LO:HP:a
8GG/L	.	(4.dd 4.b\	.	>	(4.dd/	(4.b\	la_	.	.	>
8BB/	.	.	.	.	.	.	.	.	.	.
8D/J	.	.	.	.	.	.	.	.	.	.
8G\	.	8b 8g/)	.	]	8b/)	8g\)	.	.	.	]
8r	.	8r	.	.	8r	8ryy	.	.	.	.
8r	.	8g/	4	.	8g/	8g\	la	.	.	.
=15	=15	=15	=15	=15	=15	=15	=15	=15	=15	=15
4DD/	.	4a 4d/	2 5	.	4a/	4d\	la	.	.	.
8r	.	8a 8d/	.	.	8a/	8d\	la	.	.	.
4D\	.	8aL 8d/	.	.	8a/	8d\	la	.	.	.
.	.	8g 8B/	.	.	8g/	8B\	la	.	.	.
8r	.	8aJ 8d/	.	.	8a/	8d\	la	.	.	.
=16	=16	=16	=16	=16	=16	=16	=16	=16	=16	=16
4GG/	.	4g 4B/	.	.	4g/	4B\	la	.	.	.
8D\	.	8r	.	.	8r	8ryy	.	.	.	.
4G\	.	4r	.	.	4r	4ryy	.	.	.	.
8r	.	8r	.	.	8r	8ryy	.	.	.	.
*	*	*	*	*	*v	*v	*	*	*	*
==	==	==	==	==	==	==	==	==	==
*-	*-	*-	*-	*-	*-	*-	*-	*-	*-
!!!system-decoration: s1{(s2,s3)}
!!!RDF**kern: > = above
!!!RDF**kern: < = below
!!!RDF**kern: N = linked
!!!ENC: Andrzej Gręziak
!!!EED: Katarzyna Serwa
!!!END: 2025-03-26
!!!EEV: 2025-03-31
